outputs/icons/general/home_sync_outline_round.svg

<svg xmlns="http://www.w3.org/2000/svg" width="1200" height="1200" fill="none"><g clip-path="url(#a)"><path fill="#000" fill-rule="evenodd" d="M478.438 600h238.957c24.41.26 33.195 4.975 32.61 28.915V900h100V535.935c-.21-20.33-3.7-29.165-19.18-43.621l-197.32-177.731c-27.98-23.165-42.425-22.094-67 0L369.183 492.314c-14.38 11.396-18.889 20.696-19.178 43.621V900h100V628.915c-.07-21.835 5.688-28.605 28.433-28.915m-313.433 0c-23 0-33.5-28.5-16.5-43.5l418-376.501c19-17 48-17 67 0l418 376.501c17.5 15 6.5 43.5-16.5 43.5h-85v350c0 27.5-22.5 50-50 50h-200c-27.5 0-50-22.5-50-50V700h-100v250c0 27.5-22.5 50-50 50h-200c-27.5 0-50-22.5-50-50V600z"/></g><defs><clipPath id="a"><path fill="#fff" d="M0 0h1200v1200H0z"/></clipPath></defs></svg>

<svg width="1200" height="1200" viewBox="0 0 1200 1200" fill="none" xmlns="http://www.w3.org/2000/svg"><g clip-path="url(#clip0_8207_41)"><path fill-rule="evenodd" d="M478.438 600H717.395C741.805 600.26 750.59 604.975 750.005 628.915V900H850.005V535.935C849.795 515.605 846.305 506.77 830.825 492.314L633.505 314.583C605.525 291.418 591.08 292.489 566.505 314.583L369.183 492.314C354.803 503.71 350.294 513.01 350.005 535.935V900H450.005V628.915C449.935 607.08 455.693 600.31 478.438 600ZM165.005 600C142.005 600 131.505 571.5 148.505 556.5L566.505 179.999C585.505 162.999 614.505 162.999 633.505 179.999L1051.505 556.5C1069.005 571.5 1058.005 600 1035.005 600H950.005V950C950.005 977.5 927.505 1000 900.005 1000H700.005C672.505 1000 650.005 977.5 650.005 950V700H550.005V950C550.005 977.5 527.505 1000 500.005 1000H300.005C272.505 1000 250.005 977.5 250.005 950V600H165.005Z" fill="black"/></g><defs><clipPath id="clip0_8207_41"><path width="24" fill="white" d="M0 0H1200V1200H0V0z"/></clipPath></defs></svg>
